X:254
T:
R:polska
S:Ur von Baumgartens samling, Visby.
O:Gotland, Visby
M:3/4
L:1/16
K:G
G2G2 F2F2 G3D|D4 D2EF G3G,|G,CEC G,CEC G,CEC|G,B,DB, G,B,DB, G,B,DB,|
G,CEC G,CEC G,CEC|G,B,DB, G,B,DB, G,B,DB,|G,A,B,C DEFG A2c2|BAGF G4 G,4::
d2d2 ^c2c2 d3A|A4 A2B^c d4|d2f2 f2A2 A2GF|G2e2 e2G2 G2F2|A2B^c d2A2 G2F2|
F2E2 E4 D3c|B2A2 G2F2 G4|B,4 B,2A,2 A,2G,2|G,B,DB, G,B,DB, G,B,DB,|
G,CEC G,CEC G,CEC|G,B,DB, G,B,DB, G,B,DB,|G,CEC G,CEC G,CEC|
G,A,B,C DEFG A2c2|BAGF G4 G,4:|

